X: 2064
T: No Harm Done
R: hornpipe
C: Rick Gagne 2002 on whistle
M: 4/4
Q: 1/4=165
K: G
(3def | "G"gaba gfed | "Em"efgf edcB | "C"cded cBAG | "Am"AGFE "D"D2 (3def | 
"G"gaba gfed | "Em"efgf edcB | "C"cded cBAG | "D"DcAF "G"G2 :|
FG | "Em"EFGA Beef | gfed eBBe | "C"gfed "Em"bage | "D"fdd^c defd | 
"G"gdcd Bdgd | "C"ecag "D"fdcA | "G"BgdB "Am"aeca | "D"fdcA "G"G2 :|
